X:30
T:Bunker Hill
Z: id:dc-reel-30
M:C
L:1/8
K:D Mixolydian
cA|GEE2 D3G|EGAB c2Bc|ABAG EGG2|ABcA d2cA|!
GEcE D3G|EGAB c2Bc|dBcA BGGc|ABcA d2:|!
cA|Gcc2 ecc2|GccB cBAG|Add2 fdd2|Add^c d=cAG|!
EGAB cAdB|cAdB c2Bc|dBcA BGGc|ABcA d2:|!
ag|fdd2 fdad|fadf a2gf|gee2 gebe|gbeg b2ag|!
fdd2 fdad|dcAB c2Bc|dBcA BGGc|ABcA d2:|!

